X:720
T: Rocks of Connemara (with piano acc.)
C: BB
R: reel
Q: 1/8=350
M: 4/4
L: 1/8
V: 1 program 1 110 %fiddle
V: 2 volume=70 clef=bass m=D program 1 00
K: Dm
[V:1] DE|"Dm"FDAG FDCA,|"Dm"DEFG "Am"Ac=Bc|"Dm"ed (3d^cd ad (3d^cd|"F"f2 ed "Am7"cAGE|
[V:2] z2|D,2[A2D2F2]A,,2[c2D2F2]|D,2[A2D2F2]A,,2[A2C2E2]|D,2[A2D2F2]A,,2[c2D2F2]|\
F,,2[A2C2F2]A,,2[G2C2E2]|
%
[V:1] "Dm"FDAG AFDC|"Gm"DG (3G^FG "A"A^c=Bc|"Dm"AFGA "Am7"cAGE|"Dm7"DCA,C "Dm"D2 :|
[V:2] D,2[A2D2F2]A,,2[C2D2F2]|G,,2[G2B2D2]A,,2[A2^C2E2]|D,2[A2D2F2]A,,2[G2C2E2]|\
D,2[A2D2F2][A,2D,2F2] :|
%
[V:1] DE|"F"F2 cF dFcF|"Gm"BAGB "A"A^cec|"Dm"fd (3d^cd ad (3d^cd|"C"c=Bce "Dm"dcAG|
[V:2] z2|F,,2[A2C2F2]C,2[A2C2F2]|G,,2[G2B2D2]A,,2[A2^C2E2]|D,2[A2D2F2]A,,2[A2D2F2]|\
C,2[E2G2C2]D,2[A2D2F2]|
%
[V:1] "F"F2 DE FGAB|"C"c2 eg "Am"agfe|"Dm"d3 e f2 ed|"Am7"cAGE "Dm"D2 :|
[V:2] F,,2[A2C2F2]C,2[A2C2F2]|C,2[E2G2C2]A,,2[A2C2E2]|D,2[A2D2F2]A,,2[A2D2F2]|\
A,,2[G2C2E2][D,2F,2A,2] :|

%%%%%%%%%%%%%%%%%%%%%%%%%%%%%%%%%%%%%%%%%%%

